X:72
T:Old or New 100th Ps Verses 1.2.3.4,2voices. WHG.071
R:hymn
S:W.H.Giles MS,Bampton,Oxfordshire,1839p71
O:England
H:donated by Mrs W.R.Kettlewell to VWML,Apr 1927.
A:Bampton, Oxfordshire
Z:PJHeadford – VMP 2009
M:C
L:1/4
Q:1/2=100
K:G
V:1 clef=treble
G2|G2 F2|E2 D2|G2 A2|B4||\
B2|B2 B2|A2 G2|c2 B2|A4||
G2|A2 B2|A2 (GF)|E2 G2|G4||\
d>c|(B2 {A})G2|A2 B2|(c>B) TA2|G4|]
V:2 clef=bass
G,2|G,2 D,2|E,2 B,,2|E,2 D,2|[G,4G,,4]||\
G,2|G,2 G,2|D,2 E,2|C,2 G,,2|D,4||
G,2|D,2 G,,2|D,2 B,,2|C,2 D,2|G,,4||\
G,2|(G,2 {F,}) E,2|D,2 G,2|C,2 E,2|G,,4|]

